X: 6649
T: Cease Not To Row, Brave Boys
R: jig
M: 6/8
K: Aminor
E|:CE {FED}E2G|EGF EDC|CEE {FED}E2c|{Bc}B>A^G A2c|
CEE {FED}E2G|EGF EDC|CEEE ce|1 dcB A2c:|2 dcB A2e||
ceg ceg|cde gec|ceg gec|deg {ba^g}a2e|
ceg ceg|cde gec|fdA GEC|DEG A2e|
ceg ceg|cde gec|ceg gec|deg {ba^g}a2e|
ceg ece|dBd cde|CEE EAc|{Bc}B>A^G A2c||

